svg/device/bulb_fill.svg

<?xml version="1.0" encoding="UTF-8"?>
<svg width="24px" height="24px" viewBox="0 0 24 24" version="1.1" xmlns="http://www.w3.org/2000/svg" xmlns:xlink="http://www.w3.org/1999/xlink">
    <title>bulb_fill</title>
    <g id="页面-1" stroke="none" stroke-width="1" fill="none" fill-rule="evenodd">
        <g id="Device" transform="translate(-144.000000, -48.000000)" fill-rule="nonzero">
            <g id="bulb_fill" transform="translate(144.000000, 48.000000)">
                 <path d="M24,0 L24,24 L0,24 L0,0 L24,0 Z M12.5934901,23.257841 L12.5819402,23.2595131 L12.5108777,23.2950439 L12.4918791,23.2987469 L12.4918791,23.2987469 L12.4767152,23.2950439 L12.4056548,23.2595131 C12.3958229,23.2563662 12.3870493,23.2590235 12.3821421,23.2649074 L12.3780323,23.275831 L12.360941,23.7031097 L12.3658947,23.7234994 L12.3769048,23.7357139 L12.4804777,23.8096931 L12.4953491,23.8136134 L12.4953491,23.8136134 L12.5071152,23.8096931 L12.6106902,23.7357139 L12.6232938,23.7196733 L12.6232938,23.7196733 L12.6266527,23.7031097 L12.609561,23.275831 C12.6075724,23.2657013 12.6010112,23.2592993 12.5934901,23.257841 L12.5934901,23.257841 Z M12.8583906,23.1452862 L12.8445485,23.1473072 L12.6598443,23.2396597 L12.6498822,23.2499052 L12.6498822,23.2499052 L12.6471943,23.2611114 L12.6650943,23.6906389 L12.6699349,23.7034178 L12.6699349,23.7034178 L12.678386,23.7104931 L12.8793402,23.8032389 C12.8914285,23.8068999 12.9022333,23.8029875 12.9078286,23.7952264 L12.9118235,23.7811639 L12.8776777,23.1665331 C12.8752882,23.1545897 12.8674102,23.1470016 12.8583906,23.1452862 L12.8583906,23.1452862 Z M12.1430473,23.1473072 C12.1332178,23.1423925 12.1221763,23.1452606 12.1156365,23.1525954 L12.1099173,23.1665331 L12.0757714,23.7811639 C12.0751323,23.7926639 12.0828099,23.8018602 12.0926481,23.8045676 L12.108256,23.8032389 L12.3092106,23.7104931 L12.3186497,23.7024347 L12.3186497,23.7024347 L12.3225043,23.6906389 L12.340401,23.2611114 L12.337245,23.2485176 L12.337245,23.2485176 L12.3277531,23.2396597 L12.1430473,23.1473072 Z" id="MingCute" fill-rule="nonzero"></path>
                <path d="M13,20 C13.5523,20 14,20.4477 14,21 C14,21.51285 13.613973,21.9355092 13.1166239,21.9932725 L13,22 L11,22 C10.4477,22 10,21.5523 10,21 C10,20.48715 10.386027,20.0644908 10.8833761,20.0067275 L11,20 L13,20 Z M12,2 C16.4092,2 20,5.54287 20,9.93333 C20,12.9387767 18.4784,15.1285478 17.2208,16.4266937 L16.9360838,16.7104036 L16.9360838,16.7104036 L16.6656168,16.9622508 L16.6656168,16.9622508 L16.4142755,17.1820277 L16.4142755,17.1820277 L16.0837915,17.4511079 L16.0837915,17.4511079 L15.7556,17.6957 L15.7556,17.6957 C15.5149333,17.8660333 15.3529472,18.1149083 15.2058106,18.3736329 L15.0014274,18.7382064 C14.7625592,19.1485224 14.4838286,19.5 13.893,19.5 L10.107,19.5 C9.51621429,19.5 9.2374751,19.1485224 8.99857207,18.7382694 L8.88118,18.5296 C8.70869,18.2176 8.53317,17.9001 8.24444,17.6957 L8.01156537,17.5245415 L8.01156537,17.5245415 L7.81310475,17.3695271 L7.81310475,17.3695271 L7.58576476,17.1820277 L7.58576476,17.1820277 L7.33442194,16.9622508 L7.33442194,16.9622508 L7.06395286,16.7104036 L7.06395286,16.7104036 L6.77923407,16.4266937 C5.52162222,15.1285478 4,12.9387767 4,9.93333 C4,5.54287 7.59076,2 12,2 Z M13.7071,6.29289 C13.3466385,5.93241 12.7793793,5.90468077 12.3871027,6.20970231 L12.2929,6.29289 L10.3,8.28582 C9.93587385,8.64991846 9.90787266,9.22281692 10.2159729,9.6190306 L10.3,9.71418 L11.5858,11 L10.2929,12.2929 C9.90237,12.6834 9.90237,13.3166 10.2929,13.7071 C10.6533615,14.0675615 11.2206207,14.0952893 11.6128973,13.7902834 L11.7071,13.7071 L13.7,11.7142 C14.0641538,11.3501385 14.0921657,10.7772343 13.7840355,10.3809645 L13.7,10.2858 L12.4142,9 L13.7071,7.70711 C14.0976,7.31658 14.0976,6.68342 13.7071,6.29289 Z" id="形状" fill="#09244B"></path>
            </g>
        </g>
    </g>
</svg>

<svg xmlns="http://www.w3.org/2000/svg" width="24" height="24"><g fill="none" fill-rule="nonzero"><path d="M24 0v24H0V0h24ZM12.593 23.258l-.011.002-.071.035-.02.004-.014-.004-.071-.035c-.01-.004-.019-.001-.024.005l-.004.01-.017.428.005.02.01.013.104.074.015.004.012-.004.104-.074.012-.016.004-.017-.017-.427c-.002-.01-.009-.017-.017-.018Zm.265-.113-.013.002-.185.093-.01.01-.003.011.018.43.005.012.008.007.201.093c.012.004.023 0 .029-.008l.004-.014-.034-.614c-.003-.012-.01-.02-.02-.022Zm-.715.002a.023.023 0 0 0-.027.006l-.006.014-.034.614c0 .012.007.02.017.024l.015-.002.201-.093.01-.008.004-.011.017-.43-.003-.012-.01-.01-.184-.092Z"/><path fill="#09244B" d="M13 20a1 1 0 0 1 .117 1.993L13 22h-2a1 1 0 0 1-.117-1.993L11 20h2ZM12 2c4.41 0 8 3.543 8 7.933 0 3.006-1.522 5.196-2.78 6.494l-.284.283-.27.252-.252.22-.33.27-.328.244c-.241.17-.403.419-.55.678l-.205.364c-.238.41-.517.762-1.108.762h-3.786c-.59 0-.87-.351-1.108-.762l-.118-.208c-.172-.312-.348-.63-.637-.834l-.232-.171-.199-.155-.227-.188-.252-.22-.27-.252-.285-.283C5.522 15.129 4 12.939 4 9.933 4 5.543 7.59 2 12 2Zm1.707 4.293a1 1 0 0 0-1.32-.083l-.094.083L10.3 8.286a1.01 1.01 0 0 0-.084 1.333l.084.095L11.586 11l-1.293 1.293a1 1 0 0 0 1.32 1.497l.094-.083 1.993-1.993a1.01 1.01 0 0 0 .084-1.333l-.084-.095L12.414 9l1.293-1.293a1 1 0 0 0 0-1.414Z"/></g></svg>
